X:1
T:Title
%%score { ( 1 3 4 ) | ( 2 5 6 ) }
L:1/8
M:4/4
K:Bb
V:1 treble nm="Grand Piano"
V:3 treble 
V:4 treble 
V:2 bass 
V:5 bass 
V:6 bass 
V:1
 z4 z2[Q:1/4=100] [B,D][CE] | [DF][DF][_D=E][=DF] [Fd][_Ec][DB][DF] |[M:3/4] [FA]G G^F G2 | %3
[M:1/4] CE |[M:4/4] AAAA AGFE |[M:3/4] [EG][DF] [DF][_D=E] [=DF]2 |[M:1/4] [DF][DB] | %7
[M:4/4] [Fd][Fd][E_d][F=d] [DB][DB][EA][DB] |[M:3/4] cG GG [GB]2 |[M:1/4] [FA]G | %10
[M:4/4] FFFF A2 GA |[M:3/4] [B,DB]6 |[M:1/4] z F |[M:4/4] B6[K:bass][K:treble] z2 | [EA]6 z2 | %15
 c6 z2 | [DF]6 z2 | d6 z2 | [Ge]4 z4 | F3 F A2 GA |[M:3/4] [DB]6 |] %21
V:2
 z4 z2 [B,,F,][B,,F,] | [B,,B,][B,,B,][B,,B,][B,,B,] [B,,B,][B,,F,][B,,F,][B,,B,] | %2
[M:3/4] [E,B,][E,B,E] [E,B,E][E,A,E] [E,B,E]2 |[M:1/4] [F,A,][F,A,C] | %4
[M:4/4] [F,CE][F,CE][F,CE][F,CE] [F,CE][F,A,E][F,B,D][F,C] | %5
[M:3/4] [B,,B,][B,,B,] [B,,B,][B,,G,] [B,,F,]2 |[M:1/4] [B,,B,][B,,B,] | %7
[M:4/4] [B,,B,][B,,B,][B,,B,][B,,B,] [B,,F,][B,,F,][C,F,][B,,F,] | %8
[M:3/4] [E,G,E][E,B,E] [E,B,E][E,B,E] [E,B,]2 |[M:1/4] [E,B,][E,B,E] | %10
[M:4/4] [F,B,D][F,B,D][F,B,D][F,B,D] [F,CE]2 [F,B,E][F,CE] |[M:3/4] B,,6 |[M:1/4] DD | %13
[M:4/4] D6 z2 | [F,C]F,F,F, F,2 z[K:treble] F | E6[K:bass] z2 | B,,B,,B,,B,, B,,2[K:treble] DD | %17
 F6[K:bass] z2 | [E,B,]E,E,E, [E,B,]2 (3[E,B,]-[E,B,F][E,B,E] | %19
 [F,B,D]3 [F,B,D] [F,CE]2 [F,B,E][F,CE] |[M:3/4] [B,,B,]6 |] %21
V:3
 x8 | x8 |[M:3/4] x6 |[M:1/4] x2 |[M:4/4] x8 |[M:3/4] x6 |[M:1/4] x2 |[M:4/4] x8 |[M:3/4] x6 | %9
[M:1/4] x2 |[M:4/4] x8 |[M:3/4] x6 |[M:1/4] x2 |[M:4/4] z2[K:bass] F,F, z[K:treble] D[DF][DB] | %14
 z CCC C2 FA | z2 A,A, z GAG | B,B,B,B, B,2 FB | z2 B,B, z B[Ec][Fd] | z B,B,B, [EG]2 (3[GB]AG | %19
 x8 |[M:3/4] x6 |] %21
V:4
 x8 | x8 |[M:3/4] x6 |[M:1/4] x2 |[M:4/4] x8 |[M:3/4] x6 |[M:1/4] x2 |[M:4/4] x8 |[M:3/4] x6 | %9
[M:1/4] x2 |[M:4/4] x8 |[M:3/4] x6 |[M:1/4] x2 |[M:4/4] z4[K:bass] F,2[K:treble] z2 | x8 | %15
 z4 A,2 z2 | x8 | z4 B,2 z2 | x8 | x8 |[M:3/4] x6 |] %21
V:5
 x8 | x8 |[M:3/4] x6 |[M:1/4] x2 |[M:4/4] x8 |[M:3/4] x6 |[M:1/4] x2 |[M:4/4] x8 |[M:3/4] x6 | %9
[M:1/4] x2 |[M:4/4] x8 |[M:3/4] x6 |[M:1/4] x2 |[M:4/4] z2 B,,B,, B,,2 [B,,B,]2 | x7[K:treble] x | %15
 z2[K:bass] F,F, z EEE | x6[K:treble] x2 | z2[K:bass] B,,B,, z D [B,,B,]2 | x8 | x8 |[M:3/4] x6 |] %21
V:6
 x8 | x8 |[M:3/4] x6 |[M:1/4] x2 |[M:4/4] x8 |[M:3/4] x6 |[M:1/4] x2 |[M:4/4] x8 |[M:3/4] x6 | %9
[M:1/4] x2 |[M:4/4] x8 |[M:3/4] x6 |[M:1/4] x2 |[M:4/4] x8 | x7[K:treble] x | %15
 z4[K:bass] F,2 [F,C]2 | x6[K:treble] x2 | z4[K:bass] B,,2 z2 | x8 | x8 |[M:3/4] x6 |] %21

